!!!OTL: EIN MAEDCHEN VON ACHTZEHN JAHREN
!!!ARE: Europa, Mitteleuropa, Deutschland, Westfalen
!!!SCT: Z0104
!!!YEM: Copyright 1995, estate of Helmut Schaffrath.
**kern
*ICvox
*Ivox
*M3/4
*k[f#]
*e:
{4e
=1
4e
4b
4b
=2
4b
4a
4ccn
=3
2b
4gn
=4
2f#}
{8f#
8gn
=5
4.a
8gn
8f#
8gn
=6
4a
4b
4gn
=7
2f#}
{8e
8f#
=8
4.gn
8f#
4e
=9
4.gn
8f#
4e
=10
2a
4ccn
=11
2b}
{4a
=12
4.gn
8f#
4e
=13
4.f#
8gn
4f#
=14
2e}
==
!!!AGN: Sagen - Lied, Romanze, Tod
!!!ONB: ESAC (Essen Associative Code) Database: ZUCCAL
!!!AMT: simple triple
!!!AIN: vox
!!!EED: Helmut Schaffrath
!!!EEV: 1.0
*-
